X: 23
M:C|
L:1/8
K:Bb
((3ufga)|bfef BdFd|ecAF EFCE|DfdB Ggec|BAcA F2 ((3fga)|
bfdf Bdef|ecAF EFCE|Dgfe dfAc|B2d2B2:|
|:((3ufga)|bgfd BGFD|CEG=B cdef|gecA FECA,|


